packages/icons/src/gitops-application.svg

<svg fill="none" viewBox="0 0 24 24" xmlns="http://www.w3.org/2000/svg"><path clip-rule="evenodd" d="m12.9133 4.94655c0 .32242-.2782.58379-.6214.58379-.3433 0-.6215-.26137-.6215-.58379 0-.32243.2782-.5838.6215-.5838.3432 0 .6214.26137.6214.5838zm.3999 1.79889c-.0505.02533-.1022.04885-.1549.07045v4.59511c.7671.3142 1.3034 1.033 1.3034 1.8694 0 1.1257-.9715 2.0383-2.1698 2.0383-1.1984 0-2.1699-.9126-2.1699-2.0383 0-.902.6236-1.6671 1.4879-1.9357v-4.46251c-.8643-.26857-1.4879-1.03369-1.4879-1.93564 0-1.12575.9715-2.03835 2.1699-2.03835 1.1983 0 2.1698.9126 2.1698 2.03835 0 .24522-.0461.48034-.1306.6981l1.4937 1.40322c.3008-.14817.6432-.232 1.0064-.232 1.1983 0 2.1698.9126 2.1698 2.03835 0 1.12574-.9715 2.03838-2.1698 2.03838-1.1984 0-2.1699-.91264-2.1699-2.03838 0-.25114.0484-.49168.1368-.71383zm7.1179 6.55156-4.3326-1.4257-.5119 1.3727 2.3508.7736-6.298 2.2914-5.64859-2.266 2.38076-.8006-.52187-1.3695-4.23964 1.4258c-.30785.1035-.51327.3776-.51326.6847l.00015 3.2228c.00003.5669.3506 1.0821.89824 1.3201l7.30501 3.1748c.1974.0858.4241.0896.6246.0106l8.0754-3.1829c.5751-.2267.9493-.7554.9493-1.3414l-.0002-3.204c0-.309-.2078-.5842-.5182-.6864zm-8.0318 4.2954 7.0017-2.5474.0001 2.1425-7.0017 2.7597zm-1.5483-.018.0001 2.3288-6.20576-2.697-.0001-2.1214zm1.4409-3.7103c.3432 0 .6214-.2613.6214-.5837 0-.3225-.2782-.5838-.6214-.5838-.3433 0-.6215.2613-.6215.5838 0 .3224.2782.5837.6215.5837zm5.1607-5.00988c0 .32242-.2782.58379-.6214.58379-.3433 0-.6215-.26137-.6215-.58379 0-.32243.2782-.5838.6215-.5838.3432 0 .6214.26137.6214.5838z" fill="#4f5162" fill-rule="evenodd"/></svg>

<svg viewBox="0 0 24 24" fill="none" xmlns="http://www.w3.org/2000/svg">
<path fill-rule="evenodd" clip-rule="evenodd" d="M12.9133 4.94655C12.9133 5.26897 12.6351 5.53034 12.2919 5.53034C11.9486 5.53034 11.6704 5.26897 11.6704 4.94655C11.6704 4.62412 11.9486 4.36275 12.2919 4.36275C12.6351 4.36275 12.9133 4.62412 12.9133 4.94655ZM13.3132 6.74544C13.2627 6.77077 13.211 6.79429 13.1583 6.81589V11.411C13.9254 11.7252 14.4617 12.444 14.4617 13.2804C14.4617 14.4061 13.4902 15.3187 12.2919 15.3187C11.0935 15.3187 10.122 14.4061 10.122 13.2804C10.122 12.3784 10.7456 11.6133 11.6099 11.3447V6.88219C10.7456 6.61362 10.122 5.8485 10.122 4.94655C10.122 3.8208 11.0935 2.9082 12.2919 2.9082C13.4902 2.9082 14.4617 3.8208 14.4617 4.94655C14.4617 5.19177 14.4156 5.42689 14.3311 5.64465L15.8248 7.04787C16.1256 6.8997 16.468 6.81587 16.8312 6.81587C18.0295 6.81587 19.001 7.72847 19.001 8.85422C19.001 9.97996 18.0295 10.8926 16.8312 10.8926C15.6328 10.8926 14.6613 9.97996 14.6613 8.85422C14.6613 8.60308 14.7097 8.36254 14.7981 8.14039L13.3132 6.74544ZM20.4311 13.297L16.0985 11.8713L15.5866 13.244L17.9374 14.0176L11.6394 16.309L5.99081 14.043L8.37157 13.2424L7.8497 11.8729L3.61006 13.2987C3.30221 13.4022 3.09679 13.6763 3.0968 13.9834L3.09695 17.2062C3.09698 17.7731 3.44755 18.2883 3.99519 18.5263L11.3002 21.7011C11.4976 21.7869 11.7243 21.7907 11.9248 21.7117L20.0002 18.5288C20.5753 18.3021 20.9495 17.7734 20.9495 17.1874L20.9493 13.9834C20.9493 13.6744 20.7415 13.3992 20.4311 13.297ZM12.3993 17.5924L19.401 15.045L19.4011 17.1875L12.3994 19.9472L12.3993 17.5924ZM10.851 17.5744L10.8511 19.9032L4.64534 17.2062L4.64524 15.0848L10.851 17.5744ZM12.2919 13.8641C12.6351 13.8641 12.9133 13.6028 12.9133 13.2804C12.9133 12.9579 12.6351 12.6966 12.2919 12.6966C11.9486 12.6966 11.6704 12.9579 11.6704 13.2804C11.6704 13.6028 11.9486 13.8641 12.2919 13.8641ZM17.4526 8.85422C17.4526 9.17664 17.1744 9.43801 16.8312 9.43801C16.4879 9.43801 16.2097 9.17664 16.2097 8.85422C16.2097 8.53179 16.4879 8.27042 16.8312 8.27042C17.1744 8.27042 17.4526 8.53179 17.4526 8.85422Z" fill="#4F5162"/>
</svg>
